!!!COM: Beethoven, Ludwig van
!!!OTL: Sonata, Op. 53
!!!OPS: Op. 53
!!!SCT: Piston 71
!!!citation: Harmony by Walter Piston.  W.W.Norton: New York; 1941.
!!!label: Ex. 71.  Beethoven -- <i>Sonata, op. 53</i>
!!!chapter: Chapter 4 (Tonality and Modality)
!!!page: 37
!!!ENC: Craig Stuart Sapp
**kern	**kern	**root	**harm
*staff2	*staff1	*staff3	*staff3
*clefG2	*clefF4	*clefF4	*
*M2/4	*M2/4	*M2/4	*M2/4
*MM132	*MM132	*MM132	*MM132
*k[]	*k[]	*k[]	*k[]
*c:	*c:	*c:	*c:
(4ee-	16r	2CC	i
.	(16G	.	.
.	16c	.	.
.	16g)	.	.
4cc	16r	.	.
.	(16G	.	.
.	16e-	.	.
.	16g)	.	.
=	=	=	=
4b	16r	2GG	V
.	(16G	.	.
.	16d	.	.
.	16g)	.	.
4dd)	16r	.	.
.	(16G	.	.
.	16B	.	.
.	16g)	.	.
=	=	=	=
*C	*C	*C	*C
(4een	16r	2CC	I
.	(16G	.	.
.	16c	.	.
.	16g)	.	.
4cc	16r	.	.
.	(16G	.	.
.	16en	.	.
.	16g)	.	.
=	=	=	=
4b	16r	2GG	V
.	(16G	.	.
.	16d	.	.
.	16g)	.	.
4dd	16r	.	.
.	(16G	.	.
.	16B	.	.
.	16g)	.	.
=	=	=	=
*c:	*c:	*c:	*c:
4ee-	16r	2CC	i
.	(16G	.	.
.	16c	.	.
.	16g)	.	.
4cc)	16r	.	.
.	(16G	.	.
.	16c	.	.
.	16e-)	.	.
=	=	=	=
(4gg'	16r	4GG	V
.	(16G	.	.
.	16B	.	.
.	16d)	.	.
4gg')	16r	4CC	i
.	(16G	.	.
.	16c	.	.
.	16e-)	.	.
=	=	=	=
(4gg'	16r	4GG	V
.	(16G	.	.
.	16B	.	.
.	16d)	.	.
4gg')	16r	4CC	i
.	(16G	.	.
.	16c	.	.
.	16e-)	.	.
=	=	=	=
(4gg'	16r	4GG	V
.	(16G	.	.
.	16B	.	.
.	16d)	.	.
4gg')	16r	4AA	(VI)
.	(16G	.	.
.	16A	.	.
.	16c)	.	.
=	=	=	=
*C	*C	*C	*C
4gg	16r	[2GG	V
*	*clefG2	*	*
.	(16G	.	.
.	16B	.	.
.	16d	.	.
4r	16g	.	.
.	16b	.	.
.	16a	.	.
.	16f#	.	.
=	=	=	=
2r	16g	2GG]	.
.	16B	.	.
.	16d	.	.
.	16g	.	.
.	16b	.	.
.	16dd	.	.
.	16cc	.	.
.	16a	.	.
=	=	=	=
*-	*-	*-	*-
